**kern	**kern	**dynam
*part1	*part1	*part1
*staff2	*staff1	*
*I"Piano	*	*
*clefF4	*clefG2	*
*k[f#c#]	*k[f#c#]	*
=1	=1	=1
4.E	8r	.
.	8EL<	.
.	8AJ< 8c#<	.
4.Dn	8raa	.
.	8EL<	.
.	8G#XJ< 8B<	.
=	=	=
4.C#X	8raa	.
.	8EL< 8A<	.
.	8eJ<	.
4.D#X	8raa	.
.	8F#L< 8A< 8B<	.
.	8f#J<	.
=	=	=
4.E	8r	.
.	8AL 8c#	.
.	8eJ	.
4.EE	8r	.
.	8G#XL 8d	.
.	8eJ	.
=	=	=
!	!	!LO:DY:a
8AAAL	8AL 8c# 8e	<
8AA	8A	.
8C#J	8AJ	.
8EL	8A	.
8C#	(8.eeL	.
8AAJ	.	.
.	16aaJk)	.
=	=	=
8AAL	(4aa	[ fz
!	!	!LO:DY:a
8Fn 8A	.	mp
8AJ 8d	8a)	.
8dL 8fn	8r	.
!	!LO:TX:a:i:t=cresc.	!
8AJ 8d	(8.ffnL	.
8r	.	.
.	16aaJk)	.
=	=	=
8AAL	(4aa^	.
8F#X 8A	.	.
8AJ 8cn	8a)	.
8dL 8f#X	8r	.
8AJ 8d	(8.ff#XL	.
8r	.	.
.	16aaJk)	.
=	=	=
(8AAL	(4.a 4.cc#X 4.ee 4.aa	.
8C#X	.	.
8EJ)	.	.
*^	*	*
8rA	4.A	8ggL	.
8c#L 8e	.	8ee	.
8dJ 8f#	.	8ddJ)	.
*v	*v	*	*
=	=	=
*-	*-	*-
!!!system-decoration: {(s1,s2)}
!!!RDF**kern: < = below
